svg/Mapbox-maki/car-18.svg

<?xml version="1.0" encoding="UTF-8" standalone="no"?>
<!-- Generator: Adobe Illustrator 15.1.0, SVG Export Plug-In . SVG Version: 6.00 Build 0)  -->

<svg
   xmlns:dc="http://purl.org/dc/elements/1.1/"
   xmlns:cc="http://creativecommons.org/ns#"
   xmlns:rdf="http://www.w3.org/1999/02/22-rdf-syntax-ns#"
   xmlns:svg="http://www.w3.org/2000/svg"
   xmlns="http://www.w3.org/2000/svg"
   xmlns:sodipodi="http://sodipodi.sourceforge.net/DTD/sodipodi-0.dtd"
   xmlns:inkscape="http://www.inkscape.org/namespaces/inkscape"
   version="1.1"
   id="svg4619"
   sodipodi:docname="car-18.svg"
   inkscape:version="0.48.2 r9819"
   x="0px"
   y="0px"
   width="18px"
   height="18px"
   viewBox="-402.5 403.5 18 18"
   enable-background="new -402.5 403.5 18 18"
   xml:space="preserve"><metadata
   id="metadata3166"><rdf:RDF><cc:Work
       rdf:about=""><dc:format>image/svg+xml</dc:format><dc:type
         rdf:resource="http://purl.org/dc/dcmitype/StillImage" /><dc:title /></cc:Work></rdf:RDF></metadata><defs
   id="defs3164" />
<sodipodi:namedview
   id="base"
   inkscape:pageopacity="0.0"
   borderopacity="1.0"
   inkscape:cx="-8.6434289"
   inkscape:pageshadow="2"
   inkscape:zoom="16"
   inkscape:document-units="px"
   inkscape:current-layer="layer1"
   inkscape:guide-bbox="true"
   showguides="false"
   inkscape:window-width="1008"
   showgrid="false"
   inkscape:window-height="662"
   inkscape:window-x="393"
   inkscape:cy="8.2128867"
   inkscape:window-y="256"
   inkscape:window-maximized="0"
   pagecolor="#ffffff"
   bordercolor="#666666">
	<inkscape:grid
   type="xygrid"
   id="grid4627"
   enabled="true"
   empspacing="2"
   visible="true"
   snapvisiblegridlinesonly="true"
   spacingx="0.5px"
   spacingy="0.5px">
		</inkscape:grid>
	<sodipodi:guide
   id="guide4659"
   position="7,18"
   orientation="0,1" />
	<sodipodi:guide
   id="guide4661"
   position="18,9"
   orientation="1,0" />
	<sodipodi:guide
   id="guide4663"
   position="16,17"
   orientation="0,1" />
	<sodipodi:guide
   id="guide4665"
   position="17,14"
   orientation="1,0" />
	<sodipodi:guide
   id="guide4667"
   position="0,16"
   orientation="1,0" />
	<sodipodi:guide
   id="guide4669"
   position="8,0"
   orientation="0,1" />
	<sodipodi:guide
   id="guide4671"
   position="2,10"
   orientation="1,0" />
	<sodipodi:guide
   id="guide4673"
   position="12,2"
   orientation="0,1" />
</sodipodi:namedview>
<g
   id="layer1"
   transform="translate(0,-1034.3622)"
   inkscape:groupmode="layer"
   inkscape:label="Layer 1">
<g
   style="display:inline"
   id="bus-24"
   transform="matrix(0.76470588,0,0,0.76470588,-466.79412,560.99699)"
   inkscape:label="bus-24"
   inkscape:export-xdpi="89.996864"
   inkscape:export-ydpi="89.996864"><g
     id="g21783"><g
       id="g15936"
       transform="translate(-1,2)"><g
         transform="translate(84,139)"
         style="opacity:0.3;color:#000000;fill:#ffffff;fill-opacity:1;fill-rule:nonzero;stroke:#ffffff;stroke-width:2.61538458;stroke-linecap:butt;stroke-linejoin:round;stroke-miterlimit:4;stroke-opacity:1;stroke-dasharray:none;stroke-dashoffset:0;marker:none;visibility:visible;display:inline;overflow:visible;enable-background:accumulate"
         id="g9918" /><g
         id="g8615-8"
         style="display:inline"
         transform="translate(84,139)"><path
           sodipodi:nodetypes="ccccccccccccccccccccccccccccccc"
           inkscape:connector-curvature="0"
           id="path3284"
           transform="matrix(1.3076923,0,0,1.3076923,1.0769264,1005.6699)"
           d="M 6.0000001,2.9999951 3,7.4999951 3,13 l 2,0 0,1 2,0 0,-1 5,0 0,1 1,0 1,0 0,-1 2,0 0,-5.3125049 -3,-4.6875 z m 0.9999999,2 5,0 L 13.5,7 5.5,7 z M 6,9 7,10 6,11 5,10 z m 7,0 1,1 -1,1 -1,-1 z"
           style="color:#000000;fill:#ffffff;fill-opacity:1;fill-rule:nonzero;stroke:#ffffff;stroke-width:2.00000002;marker:none;visibility:visible;display:inline;overflow:visible;enable-background:accumulate;opacity:0.29999999999999999;stroke-linecap:butt;stroke-linejoin:round;stroke-miterlimit:4;stroke-opacity:1;stroke-dasharray:none;stroke-dashoffset:0" /><path
           style="color:#000000;fill:#444444;fill-opacity:1;fill-rule:nonzero;stroke:none;stroke-width:2;marker:none;visibility:visible;display:inline;overflow:visible;enable-background:accumulate"
           d="M 6.0000001,2.9999951 3,7.4999951 3,13 l 2,0 0,1 2,0 0,-1 5,0 0,1 1,0 1,0 0,-1 2,0 0,-5.3125049 -3,-4.6875 z m 0.9999999,2 5,0 L 13.5,7 5.5,7 z M 6,9 7,10 6,11 5,10 z m 7,0 1,1 -1,1 -1,-1 z"
           transform="matrix(1.3076923,0,0,1.3076923,1.0769264,1005.6699)"
           id="path8522-6-8"
           inkscape:connector-curvature="0"
           sodipodi:nodetypes="ccccccccccccccccccccccccccccccc" /></g></g></g></g></g>

</svg>

<svg xmlns="http://www.w3.org/2000/svg" viewBox="-402.5 403.5 18 18" enable-background="new -402.5 403.5 18 18"><g color="#000" transform="translate(-402.5 403.51)"><path d="m6 3l-3 4.5v5.5h2v1h2v-1h5v1h1 1v-1h2v-5.313l-3-4.688zm1 2h5l1.5 2h-8zm-1 4l1 1-1 1-1-1zm7 0l1 1-1 1-1-1z" opacity=".3" stroke-width="2" fill="#fff" stroke-linejoin="round" stroke="#fff"/><path d="m6 3l-3 4.5v5.5h2v1h2v-1h5v1h1 1v-1h2v-5.313l-3-4.688zm1 2h5l1.5 2h-8zm-1 4l1 1-1 1-1-1zm7 0l1 1-1 1-1-1z" fill="#444"/></g></svg>
